;  Created by Sandify
;  https://sandify.org
;  Version: 0.2.6
;
;  Machine type: Polar
;    Max radius (mm): 250
;    Start point: none
;    End point: none
;  Content type: machine
;  Reverse export path: false
;
; File name: '8'
; File type: gcode
;

G01 X263.333 Y250.000
G01 X263.519 Y250.008
G01 X263.862 Y250.063
G01 X264.348 Y250.212
G01 X264.951 Y250.495
G01 X265.637 Y250.947
G01 X266.360 Y251.593
G01 X267.073 Y252.445
G01 X267.724 Y253.506
G01 X268.261 Y254.764
G01 X268.636 Y256.194
G01 X268.808 Y257.762
G01 X268.745 Y259.423
G01 X268.427 Y261.125
G01 X267.845 Y262.813
G01 X267.005 Y264.431
G01 X265.924 Y265.924
G01 X264.634 Y267.244
G01 X263.177 Y268.351
G01 X261.602 Y269.217
G01 X259.965 Y269.824
G01 X258.324 Y270.171
G01 X256.737 Y270.268
G01 X255.254 Y270.140
G01 X253.922 Y269.825
G01 X252.774 Y269.367
G01 X251.832 Y268.821
G01 X251.105 Y268.243
G01 X250.586 Y267.690
G01 X250.254 Y267.217
G01 X250.077 Y266.870
G01 X250.010 Y266.687
G01 X250.000 Y266.693
G01 X249.990 Y266.898
G01 X249.921 Y267.300
G01 X249.736 Y267.879
G01 X249.384 Y268.603
G01 X248.823 Y269.427
G01 X248.024 Y270.297
G01 X246.971 Y271.151
G01 X245.663 Y271.925
G01 X244.115 Y272.557
G01 X242.359 Y272.989
G01 X240.438 Y273.169
G01 X238.408 Y273.061
G01 X236.332 Y272.639
G01 X234.279 Y271.895
G01 X232.317 Y270.837
G01 X230.513 Y269.487
G01 X228.924 Y267.886
G01 X227.599 Y266.084
G01 X226.571 Y264.145
G01 X225.860 Y262.134
G01 X225.468 Y260.124
G01 X225.379 Y258.183
G01 X225.563 Y256.375
G01 X225.974 Y254.753
G01 X226.556 Y253.358
G01 X227.243 Y252.215
G01 X227.967 Y251.334
G01 X228.658 Y250.707
G01 X229.251 Y250.306
G01 X229.691 Y250.093
G01 X229.933 Y250.012
G01 X229.948 Y250.000
G01 X229.722 Y249.988
G01 X229.261 Y249.905
G01 X228.589 Y249.684
G01 X227.745 Y249.263
G01 X226.782 Y248.594
G01 X225.767 Y247.641
G01 X224.772 Y246.387
G01 X223.874 Y244.832
G01 X223.146 Y242.994
G01 X222.659 Y240.912
G01 X222.470 Y238.638
G01 X222.624 Y236.239
G01 X223.149 Y233.789
G01 X224.055 Y231.371
G01 X225.331 Y229.065
G01 X226.949 Y226.949
G01 X228.862 Y225.092
G01 X231.008 Y223.549
G01 X233.313 Y222.359
G01 X235.697 Y221.545
G01 X238.076 Y221.107
G01 X240.370 Y221.026
G01 X242.504 Y221.266
G01 X244.416 Y221.773
G01 X246.058 Y222.479
G01 X247.401 Y223.307
G01 X248.436 Y224.176
G01 X249.172 Y225.006
G01 X249.641 Y225.720
G01 X249.892 Y226.253
G01 X249.986 Y226.553
G01 X250.000 Y226.588
G01 X250.014 Y226.342
G01 X250.110 Y225.823
G01 X250.368 Y225.057
G01 X250.858 Y224.092
G01 X251.636 Y222.991
G01 X252.742 Y221.831
G01 X254.197 Y220.695
G01 X256.000 Y219.672
G01 X258.127 Y218.850
G01 X260.534 Y218.306
G01 X263.161 Y218.108
G01 X265.930 Y218.308
G01 X268.753 Y218.937
G01 X271.537 Y220.005
G01 X274.187 Y221.499
G01 X276.614 Y223.386
G01 X278.740 Y225.610
G01 X280.501 Y228.100
G01 X281.853 Y230.770
G01 X282.771 Y233.527
G01 X283.255 Y236.276
G01 X283.327 Y238.923
G01 X283.030 Y241.383
G01 X282.428 Y243.585
G01 X281.599 Y245.474
G01 X280.630 Y247.018
G01 X279.615 Y248.206
G01 X278.647 Y249.051
G01 X277.812 Y249.589
G01 X277.186 Y249.876
G01 X276.667 Y250.000
G01 X276.932 Y250.016
G01 X277.508 Y250.126
G01 X278.364 Y250.419
G01 X279.446 Y250.975
G01 X280.681 Y251.858
G01 X281.983 Y253.113
G01 X283.255 Y254.763
G01 X284.398 Y256.805
G01 X285.313 Y259.212
G01 X285.911 Y261.936
G01 X286.117 Y264.905
G01 X285.873 Y268.032
G01 X285.143 Y271.217
G01 X283.918 Y274.354
G01 X282.213 Y277.337
G01 X280.066 Y280.066
G01 X277.540 Y282.452
G01 X274.717 Y284.425
G01 X271.694 Y285.933
G01 X268.574 Y286.951
G01 X265.468 Y287.480
G01 X262.479 Y287.543
G01 X259.703 Y287.192
G01 X257.220 Y286.498
G01 X255.091 Y285.548
G01 X253.353 Y284.443
G01 X252.016 Y283.287
G01 X251.066 Y282.185
G01 X250.461 Y281.233
G01 X250.139 Y280.517
G01 X250.018 Y280.100
G01 X250.000 Y280.026
G01 X249.982 Y280.312
G01 X249.859 Y280.947
G01 X249.529 Y281.896
G01 X248.904 Y283.098
G01 X247.912 Y284.471
G01 X246.503 Y285.919
G01 X244.653 Y287.332
G01 X242.364 Y288.599
G01 X239.667 Y289.609
G01 X236.617 Y290.264
G01 X233.295 Y290.478
G01 X229.799 Y290.188
G01 X226.240 Y289.355
G01 X222.738 Y287.968
G01 X219.411 Y286.045
G01 X216.371 Y283.629
G01 X213.716 Y280.792
G01 X211.525 Y277.625
G01 X209.855 Y274.236
G01 X208.733 Y270.743
G01 X208.159 Y267.267
G01 X208.104 Y263.925
G01 X208.511 Y260.824
G01 X209.301 Y258.051
G01 X210.374 Y255.675
G01 X211.621 Y253.736
G01 X212.923 Y252.246
G01 X214.163 Y251.187
G01 X215.235 Y250.513
G01 X216.044 Y250.155
G01 X216.520 Y250.020
G01 X216.614 Y250.000
G01 X216.309 Y249.980
G01 X215.615 Y249.843
G01 X214.573 Y249.477
G01 X213.250 Y248.783
G01 X211.738 Y247.683
G01 X210.145 Y246.120
G01 X208.591 Y244.069
G01 X207.200 Y241.533
G01 X206.094 Y238.546
G01 X205.383 Y235.170
G01 X205.161 Y231.495
G01 X205.496 Y227.630
G01 X206.433 Y223.698
G01 X207.982 Y219.830
G01 X210.123 Y216.159
G01 X212.807 Y212.807
G01 X215.956 Y209.884
G01 X219.467 Y207.475
G01 X223.221 Y205.643
G01 X227.087 Y204.418
G01 X230.933 Y203.798
G01 X234.628 Y203.751
G01 X238.055 Y204.214
G01 X241.118 Y205.099
G01 X243.741 Y206.297
G01 X245.881 Y207.685
G01 X247.525 Y209.132
G01 X248.692 Y210.511
G01 X249.434 Y211.703
G01 X249.829 Y212.606
G01 X249.978 Y213.140
G01 X250.000 Y213.255
G01 X250.022 Y212.929
G01 X250.173 Y212.176
G01 X250.575 Y211.041
G01 X251.338 Y209.598
G01 X252.547 Y207.947
G01 X254.263 Y206.208
G01 X256.515 Y204.513
G01 X259.298 Y202.999
G01 X262.575 Y201.797
G01 X266.276 Y201.030
G01 X270.305 Y200.799
G01 X274.540 Y201.181
G01 X278.845 Y202.221
G01 X283.078 Y203.932
G01 X287.093 Y206.291
G01 X290.756 Y209.244
G01 X293.948 Y212.704
G01 X296.575 Y216.559
G01 X298.569 Y220.678
G01 X299.898 Y224.918
G01 X300.563 Y229.133
G01 X300.602 Y233.181
G01 X300.082 Y236.935
G01 X299.102 Y240.286
G01 X297.780 Y243.157
G01 X296.252 Y245.497
G01 X294.659 Y247.295
G01 X293.141 Y248.572
G01 X291.829 Y249.382
G01 X290.833 Y249.814
G01 X290.000 Y250.000
G01 X290.345 Y250.024
G01 X291.155 Y250.188
G01 X292.380 Y250.626
G01 X293.940 Y251.455
G01 X295.725 Y252.769
G01 X297.605 Y254.634
G01 X299.436 Y257.080
G01 X301.071 Y260.103
G01 X302.365 Y263.661
G01 X303.186 Y267.678
G01 X303.426 Y272.048
G01 X303.000 Y276.641
G01 X301.859 Y281.309
G01 X299.992 Y285.895
G01 X297.421 Y290.243
G01 X294.208 Y294.208
G01 X290.447 Y297.661
G01 X286.258 Y300.498
G01 X281.785 Y302.649
G01 X277.183 Y304.079
G01 X272.611 Y304.788
G01 X268.221 Y304.819
G01 X264.151 Y304.245
G01 X260.519 Y303.172
G01 X257.409 Y301.730
G01 X254.874 Y300.065
G01 X252.927 Y298.331
G01 X251.546 Y296.679
G01 X250.668 Y295.250
G01 X250.202 Y294.164
G01 X250.026 Y293.514
G01 X250.000 Y293.360
G01 X249.974 Y293.725
G01 X249.796 Y294.593
G01 X249.322 Y295.912
G01 X248.424 Y297.592
G01 X247.001 Y299.516
G01 X244.983 Y301.541
G01 X242.336 Y303.514
G01 X239.066 Y305.272
G01 X235.218 Y306.661
G01 X230.875 Y307.539
G01 X226.152 Y307.787
G01 X221.190 Y307.315
G01 X216.148 Y306.071
G01 X211.197 Y304.042
G01 X206.505 Y301.253
G01 X202.229 Y297.771
G01 X198.507 Y293.699
G01 X195.452 Y289.166
G01 X193.139 Y284.328
G01 X191.606 Y279.353
G01 X190.850 Y274.411
G01 X190.828 Y269.667
G01 X191.459 Y265.272
G01 X192.627 Y261.350
G01 X194.193 Y257.993
G01 X195.999 Y255.257
G01 X197.878 Y253.157
G01 X199.669 Y251.667
G01 X201.218 Y250.720
G01 X202.398 Y250.217
G01 X203.107 Y250.027
G01 X203.281 Y250.000
G01 X202.896 Y249.972
G01 X201.968 Y249.781
G01 X200.556 Y249.270
G01 X198.756 Y248.303
G01 X196.694 Y246.771
G01 X194.522 Y244.599
G01 X192.409 Y241.752
G01 X190.526 Y238.235
G01 X189.042 Y234.097
G01 X188.108 Y229.428
G01 X187.852 Y224.352
G01 X188.369 Y219.020
G01 X189.717 Y213.606
G01 X191.908 Y208.289
G01 X194.915 Y203.253
G01 X198.665 Y198.665
G01 X203.049 Y194.675
G01 X207.926 Y191.402
G01 X213.129 Y188.927
G01 X218.478 Y187.290
G01 X223.790 Y186.489
G01 X228.886 Y186.476
G01 X233.607 Y187.162
G01 X237.819 Y188.426
G01 X241.423 Y190.116
G01 X244.360 Y192.062
G01 X246.614 Y194.088
G01 X248.213 Y196.016
G01 X249.227 Y197.687
G01 X249.767 Y198.959
G01 X249.971 Y199.727
G01 X250.000 Y199.921
G01 X250.030 Y199.516
G01 X250.235 Y198.529
G01 X250.782 Y197.024
G01 X251.818 Y195.103
G01 X253.458 Y192.903
G01 X255.784 Y190.586
G01 X258.832 Y188.332
G01 X262.596 Y186.325
G01 X267.024 Y184.745
G01 X272.018 Y183.755
G01 X277.448 Y183.491
G01 X283.149 Y184.054
G01 X288.937 Y185.505
G01 X294.619 Y187.858
G01 X299.999 Y191.083
G01 X304.898 Y195.102
G01 X309.157 Y199.797
G01 X312.648 Y205.018
G01 X315.285 Y210.586
G01 X317.025 Y216.309
G01 X317.872 Y221.990
G01 X317.877 Y227.439
G01 X317.134 Y232.486
G01 X315.775 Y236.988
G01 X313.962 Y240.839
G01 X311.874 Y243.977
G01 X309.703 Y246.384
G01 X307.636 Y248.092
G01 X305.845 Y249.175
G01 X304.479 Y249.751
G01 X303.333 Y250.000
G01 X303.758 Y250.032
G01 X304.802 Y250.250
G01 X306.397 Y250.833
G01 X308.435 Y251.935
G01 X310.769 Y253.681
G01 X313.227 Y256.155
G01 X315.618 Y259.398
G01 X317.745 Y263.402
G01 X319.417 Y268.109
G01 X320.462 Y273.420
G01 X320.734 Y279.191
G01 X320.127 Y285.250
G01 X318.576 Y291.401
G01 X316.065 Y297.436
G01 X312.629 Y303.150
G01 X308.350 Y308.350
G01 X303.353 Y312.869
G01 X297.799 Y316.571
G01 X291.877 Y319.365
G01 X285.793 Y321.206
G01 X279.754 Y322.097
G01 X273.963 Y322.094
G01 X268.600 Y321.297
G01 X263.817 Y319.845
G01 X259.727 Y317.911
G01 X256.395 Y315.687
G01 X253.838 Y313.375
G01 X252.026 Y311.174
G01 X250.875 Y309.266
G01 X250.264 Y307.810
G01 X250.033 Y306.927
G01 X250.000 Y306.693
G01 X249.967 Y307.138
G01 X249.734 Y308.240
G01 X249.115 Y309.929
G01 X247.944 Y312.087
G01 X246.090 Y314.560
G01 X243.462 Y317.164
G01 X240.018 Y319.695
G01 X235.767 Y321.946
G01 X230.770 Y323.714
G01 X225.133 Y324.815
G01 X219.009 Y325.096
G01 X212.580 Y324.442
G01 X206.057 Y322.787
G01 X199.657 Y320.115
G01 X193.598 Y316.461
G01 X188.086 Y311.914
G01 X183.299 Y306.605
G01 X179.379 Y300.707
G01 X176.423 Y294.420
G01 X174.479 Y287.962
G01 X173.542 Y281.554
G01 X173.553 Y275.409
G01 X174.407 Y269.721
G01 X175.953 Y264.648
G01 X178.011 Y260.310
G01 X180.376 Y256.778
G01 X182.834 Y254.068
G01 X185.174 Y252.147
G01 X187.202 Y250.927
G01 X188.751 Y250.280
G01 X189.694 Y250.035
G01 X189.948 Y250.000
G01 X189.482 Y249.965
G01 X188.321 Y249.718
G01 X186.540 Y249.063
G01 X184.261 Y247.823
G01 X181.649 Y245.860
G01 X178.900 Y243.079
G01 X176.228 Y239.434
G01 X173.853 Y234.936
G01 X171.990 Y229.649
G01 X170.832 Y223.686
G01 X170.543 Y217.209
G01 X171.242 Y210.411
G01 X173.001 Y203.514
G01 X175.835 Y196.749
G01 X179.707 Y190.346
G01 X184.523 Y184.523
G01 X190.143 Y179.467
G01 X196.385 Y175.329
G01 X203.037 Y172.211
G01 X209.869 Y170.163
G01 X216.646 Y169.180
G01 X223.144 Y169.200
G01 X229.158 Y170.110
G01 X234.521 Y171.752
G01 X239.106 Y173.934
G01 X242.839 Y176.440
G01 X245.702 Y179.043
G01 X247.733 Y181.522
G01 X249.021 Y183.670
G01 X249.705 Y185.313
G01 X249.963 Y186.314
G01 X250.000 Y186.588
G01 X250.037 Y186.103
G01 X250.297 Y184.883
G01 X250.989 Y183.008
G01 X252.298 Y180.609
G01 X254.369 Y177.859
G01 X257.305 Y174.964
G01 X261.150 Y172.150
G01 X265.895 Y169.652
G01 X271.472 Y167.693
G01 X277.760 Y166.480
G01 X284.591 Y166.182
G01 X291.758 Y166.927
G01 X299.029 Y168.789
G01 X306.159 Y171.785
G01 X312.906 Y175.875
G01 X319.040 Y180.960
G01 X324.365 Y186.891
G01 X328.721 Y193.477
G01 X332.001 Y200.494
G01 X334.152 Y207.700
G01 X335.181 Y214.846
G01 X335.153 Y221.697
G01 X334.187 Y228.037
G01 X332.449 Y233.690
G01 X330.143 Y238.522
G01 X327.496 Y242.456
G01 X324.747 Y245.473
G01 X322.130 Y247.612
G01 X319.861 Y248.968
G01 X318.126 Y249.689
G01 X316.667 Y250.000
G01 X317.171 Y250.039
G01 X318.448 Y250.312
G01 X320.413 Y251.040
G01 X322.929 Y252.415
G01 X325.813 Y254.592
G01 X328.849 Y257.676
G01 X331.799 Y261.716
G01 X334.418 Y266.700
G01 X336.469 Y272.558
G01 X337.737 Y279.162
G01 X338.043 Y286.335
G01 X337.254 Y293.859
G01 X335.292 Y301.492
G01 X332.138 Y308.976
G01 X327.838 Y316.056
G01 X322.492 Y322.492
G01 X316.259 Y328.077
G01 X309.340 Y332.645
G01 X301.969 Y336.081
G01 X294.402 Y338.333
G01 X286.897 Y339.406
G01 X279.705 Y339.370
G01 X273.048 Y338.349
G01 X267.116 Y336.519
G01 X262.044 Y334.093
G01 X257.915 Y331.310
G01 X254.750 Y328.419
G01 X252.506 Y325.668
G01 X251.082 Y323.283
G01 X250.326 Y321.457
G01 X250.041 Y320.340
G01 X250.000 Y320.026
G01 X249.959 Y320.551
G01 X249.672 Y321.887
G01 X248.908 Y323.945
G01 X247.464 Y326.581
G01 X245.179 Y329.604
G01 X241.941 Y332.786
G01 X237.700 Y335.877
G01 X232.469 Y338.620
G01 X226.321 Y340.766
G01 X219.391 Y342.090
G01 X211.865 Y342.404
G01 X203.971 Y341.569
G01 X195.965 Y339.504
G01 X188.116 Y336.188
G01 X180.692 Y331.670
G01 X173.944 Y326.056
G01 X168.091 Y319.511
G01 X163.305 Y312.248
G01 X159.707 Y304.512
G01 X157.352 Y296.571
G01 X156.233 Y288.697
G01 X156.278 Y281.151
G01 X157.354 Y274.169
G01 X159.280 Y267.947
G01 X161.830 Y262.628
G01 X164.754 Y258.299
G01 X167.790 Y254.979
G01 X170.680 Y252.626
G01 X173.186 Y251.134
G01 X175.104 Y250.342
G01 X176.280 Y250.043
G01 X176.614 Y250.000
G01 X176.069 Y249.957
G01 X174.675 Y249.656
G01 X172.523 Y248.856
G01 X169.767 Y247.343
G01 X166.605 Y244.949
G01 X163.278 Y241.558
G01 X160.046 Y237.116
G01 X157.179 Y231.638
G01 X154.938 Y225.200
G01 X153.557 Y217.944
G01 X153.234 Y210.066
G01 X154.115 Y201.802
G01 X156.284 Y193.422
G01 X159.762 Y185.208
G01 X164.498 Y177.440
G01 X170.381 Y170.381
G01 X177.237 Y164.259
G01 X184.844 Y159.255
G01 X192.945 Y155.495
G01 X201.260 Y153.036
G01 X209.503 Y151.872
G01 X217.402 Y151.925
G01 X224.710 Y153.058
G01 X231.222 Y155.079
G01 X236.788 Y157.753
G01 X241.318 Y160.818
G01 X244.791 Y163.999
G01 X247.253 Y167.027
G01 X248.814 Y169.654
G01 X249.642 Y171.666
G01 X249.955 Y172.901
G01 X250.000 Y173.255
G01 X250.045 Y172.690
G01 X250.360 Y171.236
G01 X251.196 Y168.992
G01 X252.778 Y166.114
G01 X255.281 Y162.815
G01 X258.825 Y159.342
G01 X263.467 Y155.969
G01 X269.193 Y152.978
G01 X275.921 Y150.641
G01 X283.502 Y149.204
G01 X291.734 Y148.873
G01 X300.367 Y149.800
G01 X309.121 Y152.073
G01 X317.700 Y155.712
G01 X325.812 Y160.666
G01 X333.182 Y166.818
G01 X339.573 Y173.985
G01 X344.795 Y181.936
G01 X348.717 Y190.402
G01 X351.279 Y199.090
G01 X352.490 Y207.703
G01 X352.428 Y215.955
G01 X351.239 Y223.589
G01 X349.123 Y230.391
G01 X346.325 Y236.204
G01 X343.119 Y240.935
G01 X339.791 Y244.562
G01 X336.625 Y247.132
G01 X333.878 Y248.761
G01 X331.773 Y249.627
G01 X330.000 Y250.000
G01 X330.585 Y250.047
G01 X332.095 Y250.375
G01 X334.430 Y251.247
G01 X337.424 Y252.895
G01 X340.858 Y255.503
G01 X344.472 Y259.197
G01 X347.981 Y264.033
G01 X351.092 Y269.999
G01 X353.521 Y277.007
G01 X355.013 Y284.904
G01 X355.352 Y293.478
G01 X354.381 Y302.469
G01 X352.008 Y311.584
G01 X348.212 Y320.517
G01 X343.046 Y328.962
G01 X336.635 Y336.635
G01 X329.166 Y343.285
G01 X320.881 Y348.718
G01 X312.061 Y352.797
G01 X303.011 Y355.460
G01 X294.040 Y356.715
G01 X285.446 Y356.645
G01 X277.497 Y355.401
G01 X270.414 Y353.193
G01 X264.362 Y350.274
G01 X259.436 Y346.932
G01 X255.661 Y343.464
G01 X252.985 Y340.163
G01 X251.289 Y337.299
G01 X250.388 Y335.104
G01 X250.049 Y333.753
G01 X250.000 Y333.360
G01 X249.951 Y333.964
G01 X249.610 Y335.533
G01 X248.701 Y337.961
G01 X246.984 Y341.076
G01 X244.267 Y344.648
G01 X240.420 Y348.408
G01 X235.383 Y352.058
G01 X229.170 Y355.293
G01 X221.872 Y357.818
G01 X213.649 Y359.365
G01 X204.722 Y359.713
G01 X195.362 Y358.696
G01 X185.873 Y356.220
G01 X176.575 Y352.262
G01 X167.786 Y346.878
G01 X159.802 Y340.198
G01 X152.883 Y332.418
G01 X147.232 Y323.789
G01 X142.991 Y314.604
G01 X140.225 Y305.180
G01 X138.924 Y295.840
G01 X139.002 Y286.893
G01 X140.302 Y278.618
G01 X142.606 Y271.245
G01 X145.648 Y264.946
G01 X149.132 Y259.819
G01 X152.746 Y255.890
G01 X156.185 Y253.106
G01 X159.169 Y251.341
G01 X161.458 Y250.404
G01 X162.867 Y250.051
G01 X163.281 Y250.000
G01 X162.656 Y249.949
G01 X161.028 Y249.594
G01 X158.507 Y248.649
G01 X155.272 Y246.863
G01 X151.561 Y244.038
G01 X147.656 Y240.037
G01 X143.865 Y234.799
G01 X140.506 Y228.339
G01 X137.885 Y220.752
G01 X136.282 Y212.202
G01 X135.926 Y202.922
G01 X136.988 Y193.193
G01 X139.568 Y183.330
G01 X143.688 Y173.667
G01 X149.290 Y164.534
G01 X156.239 Y156.239
G01 X164.330 Y149.051
G01 X173.303 Y143.182
G01 X182.853 Y138.779
G01 X192.651 Y135.909
G01 X202.360 Y134.563
G01 X211.660 Y134.649
G01 X220.261 Y136.006
G01 X227.924 Y138.405
G01 X234.470 Y141.571
G01 X239.797 Y145.195
G01 X243.880 Y148.955
G01 X246.773 Y152.533
G01 X248.607 Y155.637
G01 X249.580 Y158.019
G01 X249.947 Y159.488
G01 X250.000 Y159.921
G01 X250.053 Y159.276
G01 X250.422 Y157.589
G01 X251.403 Y154.975
G01 X253.258 Y151.620
G01 X256.192 Y147.770
G01 X260.346 Y143.719
G01 X265.785 Y139.787
G01 X272.492 Y136.304
G01 X280.369 Y133.589
G01 X289.244 Y131.929
G01 X298.877 Y131.564
G01 X308.976 Y132.673
G01 X319.213 Y135.356
G01 X329.241 Y139.638
G01 X338.718 Y145.458
G01 X347.325 Y152.675
G01 X354.781 Y161.078
G01 X360.868 Y170.395
G01 X365.433 Y180.310
G01 X368.406 Y190.481
G01 X369.799 Y200.560
G01 X369.703 Y210.213
G01 X368.291 Y219.140
G01 X365.796 Y227.093
G01 X362.506 Y233.886
G01 X358.741 Y239.414
G01 X354.836 Y243.650
G01 X351.119 Y246.652
G01 X347.894 Y248.554
G01 X345.419 Y249.564
G01 X343.333 Y250.000
G01 X343.998 Y250.055
G01 X345.742 Y250.437
G01 X348.446 Y251.454
G01 X351.918 Y253.375
G01 X355.902 Y256.414
G01 X360.094 Y260.717
G01 X364.162 Y266.351
G01 X367.766 Y273.297
G01 X370.573 Y281.455
G01 X372.288 Y290.646
G01 X372.661 Y300.621
G01 X371.508 Y311.078
G01 X368.724 Y321.676
G01 X364.285 Y332.058
G01 X358.254 Y341.869
G01 X350.777 Y350.777
G01 X342.072 Y358.494
G01 X332.422 Y364.791
G01 X322.153 Y369.514
G01 X311.620 Y372.587
G01 X301.184 Y374.024
G01 X291.188 Y373.920
G01 X281.946 Y372.453
G01 X273.713 Y369.866
G01 X266.679 Y366.456
G01 X260.957 Y362.554
G01 X256.572 Y358.508
G01 X253.465 Y354.657
G01 X251.496 Y351.316
G01 X250.451 Y348.750
G01 X250.057 Y347.166
G01 X250.000 Y346.693
G01 X249.943 Y347.377
G01 X249.547 Y349.180
G01 X248.494 Y351.978
G01 X246.504 Y355.570
G01 X243.356 Y359.693
G01 X238.899 Y364.030
G01 X233.065 Y368.240
G01 X225.872 Y371.967
G01 X217.424 Y374.870
G01 X207.907 Y376.641
G01 X197.579 Y377.022
G01 X186.753 Y375.824
G01 X175.781 Y372.936
G01 X165.034 Y368.335
G01 X154.879 Y362.086
G01 X145.660 Y354.340
G01 X137.674 Y345.324
G01 X131.159 Y335.329
G01 X126.274 Y324.696
G01 X123.098 Y313.789
G01 X121.615 Y302.983
G01 X121.727 Y292.635
G01 X123.250 Y283.066
G01 X125.933 Y274.544
G01 X129.467 Y267.263
G01 X133.509 Y261.340
G01 X137.701 Y256.802
G01 X141.691 Y253.586
G01 X145.153 Y251.548
G01 X147.811 Y250.466
G01 X149.454 Y250.059
G01 X149.948 Y250.000
G01 X149.243 Y249.941
G01 X147.381 Y249.532
G01 X144.490 Y248.442
G01 X140.778 Y246.383
G01 X136.517 Y243.127
G01 X132.033 Y238.516
G01 X127.683 Y232.481
G01 X123.832 Y225.041
G01 X120.833 Y216.303
G01 X119.006 Y206.461
G01 X118.617 Y195.779
G01 X119.861 Y184.584
G01 X122.852 Y173.238
G01 X127.615 Y162.126
G01 X134.082 Y151.627
G01 X142.097 Y142.097
G01 X151.424 Y133.842
G01 X161.763 Y127.109
G01 X172.761 Y122.063
G01 X184.041 Y118.782
G01 X195.217 Y117.254
G01 X205.918 Y117.374
G01 X215.813 Y118.954
G01 X224.625 Y121.731
G01 X232.153 Y125.390
G01 X238.277 Y129.573
G01 X242.969 Y133.911
G01 X246.293 Y138.038
G01 X248.400 Y141.621
G01 X249.518 Y144.373
G01 X249.939 Y146.074
G01 X250.000 Y146.588
G01 X250.061 Y145.863
G01 X250.484 Y143.943
G01 X251.610 Y140.959
G01 X253.737 Y137.125
G01 X257.103 Y132.726
G01 X261.867 Y128.097
G01 X268.103 Y123.606
G01 X275.790 Y119.631
G01 X284.818 Y116.537
G01 X294.986 Y114.653
G01 X306.021 Y114.256
G01 X317.586 Y115.545
G01 X329.305 Y118.640
G01 X340.782 Y123.565
G01 X351.625 Y130.250
G01 X361.467 Y138.533
G01 X369.990 Y148.172
G01 X376.941 Y158.855
G01 X382.149 Y170.219
G01 X385.533 Y181.872
G01 X387.107 Y193.417
G01 X386.979 Y204.471
G01 X385.343 Y214.692
G01 X382.470 Y223.794
G01 X378.688 Y231.569
G01 X374.363 Y237.894
G01 X369.880 Y242.739
G01 X365.614 Y246.172
G01 X361.911 Y248.347
G01 X359.066 Y249.502
G01 X356.667 Y250.000
G01 X357.411 Y250.063
G01 X359.388 Y250.499
G01 X362.463 Y251.661
G01 X366.413 Y253.855
G01 X370.946 Y257.325
G01 X375.716 Y262.238
G01 X380.344 Y268.668
G01 X384.439 Y276.595
G01 X387.626 Y285.904
G01 X389.563 Y296.388
G01 X389.969 Y307.764
G01 X388.635 Y319.687
G01 X385.440 Y331.768
G01 X380.358 Y343.599
G01 X373.462 Y354.775
G01 X364.919 Y364.919
G01 X354.978 Y373.702
G01 X343.962 Y380.865
G01 X332.245 Y386.230
G01 X320.229 Y389.714
G01 X308.327 Y391.332
G01 X296.930 Y391.196
G01 X286.394 Y389.505
G01 X277.011 Y386.540
G01 X268.997 Y382.637
G01 X262.478 Y378.177
G01 X257.483 Y373.552
G01 X253.945 Y369.152
G01 X251.703 Y365.332
G01 X250.513 Y362.397
G01 X250.065 Y360.579
G01 X250.000 Y360.026
G01 X249.935 Y360.791
G01 X249.485 Y362.827
G01 X248.287 Y365.994
G01 X246.024 Y370.065
G01 X242.445 Y374.737
G01 X237.379 Y379.653
G01 X230.748 Y384.421
G01 X222.573 Y388.640
G01 X212.975 Y391.922
G01 X202.165 Y393.916
G01 X190.436 Y394.331
G01 X178.144 Y392.951
G01 X165.689 Y389.652
G01 X153.493 Y384.408
G01 X141.973 Y377.295
G01 X131.518 Y368.482
G01 X122.466 Y358.230
G01 X115.085 Y346.870
G01 X109.558 Y334.788
G01 X105.970 Y322.399
G01 X104.306 Y310.127
G01 X104.451 Y298.377
G01 X106.198 Y287.515
G01 X109.259 Y277.842
G01 X113.285 Y269.581
G01 X117.887 Y262.861
G01 X122.657 Y257.713
G01 X127.196 Y254.066
G01 X131.136 Y251.755
G01 X134.164 Y250.529
G01 X136.041 Y250.067
G01 X136.614 Y250.000
G01 X135.830 Y249.933
G01 X133.735 Y249.469
G01 X130.474 Y248.235
G01 X126.283 Y245.904
G01 X121.473 Y242.215
G01 X116.411 Y236.995
G01 X111.502 Y230.164
G01 X107.158 Y221.742
G01 X103.781 Y211.854
G01 X101.731 Y200.719
G01 X101.308 Y188.636
G01 X102.734 Y175.974
G01 X106.136 Y163.146
G01 X111.542 Y150.585
G01 X118.873 Y138.721
G01 X127.954 Y127.954
G01 X138.518 Y118.634
G01 X150.222 Y111.035
G01 X162.669 Y105.346
G01 X175.432 Y101.655
G01 X188.074 Y99.945
G01 X200.176 Y100.099
G01 X211.364 Y101.901
G01 X221.327 Y105.058
G01 X229.835 Y109.208
G01 X236.756 Y113.951
G01 X242.058 Y118.867
G01 X245.813 Y123.544
G01 X248.193 Y127.604
G01 X249.456 Y130.726
G01 X249.931 Y132.661
G01 X250.000 Y133.255
G01 X250.069 Y132.450
G01 X250.546 Y130.296
G01 X251.817 Y126.942
G01 X254.217 Y122.631
G01 X258.014 Y117.682
G01 X263.388 Y112.475
G01 X270.420 Y107.424
G01 X279.089 Y102.957
G01 X289.266 Y99.485
G01 X300.728 Y97.378
G01 X313.164 Y96.947
G01 X326.195 Y98.418
G01 X339.397 Y101.924
G01 X352.323 Y107.492
G01 X364.531 Y115.041
G01 X375.609 Y124.391
G01 X385.198 Y135.266
G01 X393.014 Y147.314
G01 X398.866 Y160.127
G01 X402.661 Y173.263
G01 X404.416 Y186.274
G01 X404.254 Y198.729
G01 X402.395 Y210.243
G01 X399.143 Y220.496
G01 X394.869 Y229.251
G01 X389.985 Y236.373
G01 X384.924 Y241.828
G01 X380.108 Y245.692
G01 X375.927 Y248.140
G01 X372.713 Y249.440
G01 X370.000 Y250.000
G01 X370.824 Y250.071
G01 X373.035 Y250.562
G01 X376.479 Y251.868
G01 X380.907 Y254.335
G01 X385.990 Y258.237
G01 X391.339 Y263.759
G01 X396.525 Y270.986
G01 X401.113 Y279.894
G01 X404.678 Y290.352
G01 X406.839 Y302.130
G01 X407.278 Y314.907
G01 X405.762 Y328.296
G01 X402.156 Y341.860
G01 X396.432 Y355.140
G01 X388.671 Y367.681
G01 X379.061 Y379.061
G01 X367.885 Y388.910
G01 X355.503 Y396.938
G01 X342.337 Y402.946
G01 X328.839 Y406.841
G01 X315.470 Y408.641
G01 X302.672 Y408.471
G01 X290.843 Y406.558
G01 X280.309 Y403.213
G01 X271.314 Y398.819
G01 X263.999 Y393.799
G01 X258.394 Y388.596
G01 X254.425 Y383.646
G01 X251.910 Y379.349
G01 X250.575 Y376.044
G01 X250.073 Y373.992
G01 X250.000 Y373.360
G01 X249.927 Y374.204
G01 X249.423 Y376.474
G01 X248.080 Y380.011
G01 X245.544 Y384.559
G01 X241.534 Y389.781
G01 X235.858 Y395.275
G01 X228.430 Y400.603
G01 X219.275 Y405.314
G01 X208.527 Y408.974
G01 X196.423 Y411.192
G01 X183.293 Y411.639
G01 X169.534 Y410.078
G01 X155.597 Y406.368
G01 X141.952 Y400.482
G01 X129.067 Y392.503
G01 X117.376 Y382.624
G01 X107.258 Y371.137
G01 X99.012 Y358.411
G01 X92.842 Y344.880
G01 X88.843 Y331.008
G01 X86.998 Y317.270
G01 X87.176 Y304.119
G01 X89.146 Y291.964
G01 X92.585 Y281.141
G01 X97.104 Y271.898
G01 X102.265 Y264.382
G01 X107.613 Y258.624
G01 X112.702 Y254.546
G01 X117.120 Y251.962
G01 X120.518 Y250.591
G01 X122.628 Y250.075
G01 X123.281 Y250.000
G01 X122.417 Y249.925
G01 X120.088 Y249.407
G01 X116.458 Y248.028
G01 X111.788 Y245.424
G01 X106.428 Y241.304
G01 X100.789 Y235.475
G01 X95.320 Y227.846
G01 X90.485 Y218.444
G01 X86.729 Y207.406
G01 X84.456 Y194.977
G01 X83.999 Y181.493
G01 X85.607 Y167.365
G01 X89.420 Y153.054
G01 X95.468 Y139.044
G01 X103.665 Y125.815
G01 X113.812 Y113.812
G01 X125.611 Y103.426
G01 X138.681 Y94.962
G01 X152.578 Y88.630
G01 X166.823 Y84.528
G01 X180.930 Y82.636
G01 X194.434 Y82.823
G01 X206.916 Y84.849
G01 X218.028 Y88.384
G01 X227.518 Y93.027
G01 X235.235 Y98.329
G01 X241.146 Y103.822
G01 X245.333 Y109.049
G01 X247.986 Y113.588
G01 X249.393 Y117.079
G01 X249.923 Y119.248
G01 X250.000 Y119.921
G01 X250.077 Y119.037
G01 X250.609 Y116.649
G01 X252.024 Y112.926
G01 X254.697 Y108.136
G01 X258.925 Y102.638
G01 X264.909 Y96.852
G01 X272.738 Y91.243
G01 X282.387 Y86.284
G01 X293.715 Y82.432
G01 X306.470 Y80.103
G01 X320.307 Y79.638
G01 X334.804 Y81.291
G01 X349.488 Y85.208
G01 X363.864 Y91.418
G01 X377.437 Y99.833
G01 X389.751 Y110.249
G01 X400.406 Y122.359
G01 X409.088 Y135.773
G01 X415.582 Y150.035
G01 X419.788 Y164.654
G01 X421.725 Y179.131
G01 X421.530 Y192.987
G01 X419.447 Y205.795
G01 X415.817 Y217.197
G01 X411.051 Y226.934
G01 X405.608 Y234.852
G01 X399.968 Y240.917
G01 X394.603 Y245.212
G01 X389.944 Y247.933
G01 X386.359 Y249.378
G01 X383.333 Y250.000
G01 X384.237 Y250.079
G01 X386.682 Y250.624
G01 X390.495 Y252.075
G01 X395.402 Y254.815
G01 X401.035 Y259.148
G01 X406.961 Y265.280
G01 X412.707 Y273.303
G01 X417.786 Y283.192
G01 X421.730 Y294.801
G01 X424.114 Y307.872
G01 X424.587 Y322.051
G01 X422.889 Y336.905
G01 X418.872 Y351.952
G01 X412.505 Y366.681
G01 X403.879 Y380.588
G01 X393.203 Y393.203
G01 X380.791 Y404.119
G01 X367.044 Y413.011
G01 X352.429 Y419.662
G01 X337.448 Y423.968
G01 X322.613 Y425.950
G01 X308.414 Y425.746
G01 X295.291 Y423.610
G01 X283.608 Y419.887
G01 X273.632 Y415.000
G01 X265.519 Y409.421
G01 X259.306 Y403.641
G01 X254.905 Y398.141
G01 X252.117 Y393.365
G01 X250.638 Y389.690
G01 X250.081 Y387.406
G01 X250.000 Y386.693
G01 X249.919 Y387.617
G01 X249.360 Y390.120
G01 X247.873 Y394.027
G01 X245.065 Y399.054
G01 X240.623 Y404.825
G01 X234.337 Y410.897
G01 X226.113 Y416.784
G01 X215.977 Y421.988
G01 X204.078 Y426.027
G01 X190.681 Y428.467
G01 X176.149 Y428.948
G01 X160.925 Y427.205
G01 X145.505 Y423.084
G01 X130.411 Y416.555
G01 X116.160 Y407.711
G01 X103.234 Y396.766
G01 X92.049 Y384.043
G01 X82.939 Y369.952
G01 X76.126 Y354.971
G01 X71.716 Y339.617
G01 X69.689 Y324.413
G01 X69.901 Y309.861
G01 X72.094 Y296.412
G01 X75.912 Y284.439
G01 X80.922 Y274.216
G01 X86.643 Y265.902
G01 X92.569 Y259.535
G01 X98.207 Y255.026
G01 X103.103 Y252.169
G01 X106.871 Y250.653
G01 X109.215 Y250.083
G01 X109.948 Y250.000
G01 X109.003 Y249.917
G01 X106.441 Y249.345
G01 X102.441 Y247.821
G01 X97.294 Y244.944
G01 X91.384 Y240.393
G01 X85.166 Y233.954
G01 X79.139 Y225.529
G01 X73.811 Y215.145
G01 X69.677 Y202.957
G01 X67.180 Y189.235
G01 X66.691 Y174.350
G01 X68.480 Y158.756
G01 X72.704 Y142.962
G01 X79.395 Y127.504
G01 X88.457 Y112.908
G01 X99.670 Y99.670
G01 X112.705 Y88.217
G01 X127.140 Y78.889
G01 X142.486 Y71.914
G01 X158.214 Y67.401
G01 X173.787 Y65.328
G01 X188.692 Y65.548
G01 X202.467 Y67.797
G01 X214.730 Y71.711
G01 X225.200 Y76.845
G01 X233.714 Y82.706
G01 X240.235 Y88.778
G01 X244.853 Y94.555
G01 X247.779 Y99.572
G01 X249.331 Y103.433
G01 X249.916 Y105.835
G01 X250.000 Y106.588
G01 X250.085 Y105.624
G01 X250.671 Y103.003
G01 X252.231 Y98.909
G01 X255.177 Y93.642
G01 X259.837 Y87.593
G01 X266.429 Y81.230
G01 X275.055 Y75.061
G01 X285.686 Y69.610
G01 X298.164 Y65.380
G01 X312.212 Y62.827
G01 X327.450 Y62.329
G01 X343.413 Y64.164
G01 X359.580 Y68.492
G01 X375.404 Y75.345
G01 X390.344 Y84.625
G01 X403.893 Y96.107
G01 X415.615 Y109.453
G01 X425.161 Y124.232
G01 X432.298 Y139.943
G01 X436.915 Y156.044
G01 X439.034 Y171.987
G01 X438.805 Y187.245
G01 X436.500 Y201.346
G01 X432.491 Y213.899
G01 X427.232 Y224.616
G01 X421.230 Y233.331
G01 X415.013 Y240.006
G01 X409.097 Y244.732
G01 X403.960 Y247.727
G01 X400.006 Y249.315

